X: 1
T: Paddy Goes To Hell
M: 12/8
L: 1/8
R: slide
K: Cmaj
B2^c d2e f2b fag | agf ed^c ed^c B2b | 
f2b f2^c ed^c BAG | FBA FGA dBA B3 :||
|:d2f ^ce^c d2f agf | eag fed ^cBA AB^c | 
d2f ^ce^c d2f agf | gfe fed ed^c d2^c :||
